X: 1542
T: Ol Meh Beni Hiç Sormuyor
C: Medenî Aziz Efendi
O: Turkey
F: http://compmusic.upf.edu/node/140
N: buselik--sarki--sofyan--ol_meh--medeni_aziz_efendi
N: makam= buselik
N: form= sarki
N: usul= sofyan = 4/4
M: 4/4
L: 1/16
K: C    
Q: 1/4=72
%%MIDI tuningsystem comma53
cBAB ABAG ABcd cBA2  | e2f2 fgfe e^dcd e2z2  | 
w:  Ol  *  *  *  *  *  *  *  meh  *  *  *  be  |  ni   | 
a^gfa g3/2f/eg f3/2e/df edc2  | d2e4dc B3/2d/cB A2z2  | 
w:  hiç  *  *  *  *  *  *  *  sor *  *  *  mu  |  yor    | 
baa^g gffe egfe d2=g2  | gf2e d2a2 gfed cBA2  | 
w:  Vâ *  *  *  *  *  *  *  din *  *  *  *  de   |   | 
z2Bc dfed cBA^G FEFG  | A4 z2de dcBd c4  | 
w:  hem  *  de  *  *  *  dur *  *  *  *  *  *  mu  |  yor  a  *  câ *  *  *  nım    | 
baa^g gffe egfe d2=g2  | gf2e d2a2 gfed cBA2  | 
w:  Vâ *  *  *  *  *  *  *  din *  *  *  *  de   |   | 
z2Bc dfed cBA^G FEFG  | A4 z2^de fe=df e2z2  | 
w:  hem  *  de  *  *  *  dur *  *  *  *  *  *  mu  |  yor  a  *  câ *  *  *  nım    | 
^d2e2 dfe2 c/B/c/d/cB A4  | ^d2e2 f^gfe edcd e2z2  | 
w:  Üs *  *  *  *  tü *  *  *  *  *  ne   |  toz   | 
ef^ga bc'ba baga fge2  | d2e4dc cdcB A2z2  | 
w:  kon *  *  *  *  *  *  *  dur *  *  *  *  *  mu  |  yor    | 
baa^g gffe egfe d2=g2  | gf2e d2a2 gfed cBA2  | 
w:  Bu *  *  *  *  *  *  *  na  *  *  *  *  sab  |   | 
z2Bc dfed cBA^G FEFG  | A4 z2de dcBd c2z2  | 
w:  rım  *  pek  *  *  *  ya *  *  *  *  *  *  nı  |  yor  a  *  câ *  *  *  nım    | 
baa^g gffe egfe d2=g2  | gf2e d2a2 gfed cBA2  | 
w:  Bu *  *  *  *  *  *  *  na  *  *  *  *  sab  |   | 
z2Bc dfed cBA^G FEFG  | A6^de fe=df e2z2  | 
w:  rım  *  pek  *  *  *  ya *  *  *  *  *  *  nı  |  yor  a  *  câ *  *  *  nım    | 
cBAB ABAG ABcd cBA2  | e2f2 fgfe e^dcd e2z2  | 
w:  Ol  *  *  *  *  *  *  *  meh  *  *  *  be  |  ni   | 
a^gfa g3/2f/eg f3/2e/df edc2  | d2e4dc B3/2d/cB A2z2  | 
w:  hiç  *  *  *  *  *  *  *  sor *  *  *  mu  |  yor    | 
baa^g gffe egfe d2=g2  | gf2e d2a2 gfed cBA2  | 
w:  Vâ *  *  *  *  *  *  *  din *  *  *  *  de   |   | 
z2Bc dfed cBA^G FEFG  | A4 z2de dcBd c4  | 
w:  hem  *  de  *  *  *  dur *  *  *  *  *  *  mu  |  yor  a  *  câ *  *  *  nım    | 
baa^g gffe egfe d2=g2  | gf2e d2a2 gfed cBA2  | 
w:  Vâ *  *  *  *  *  *  *  din *  *  *  *  de   |   | 
z2Bc dfed cBA^G FEFG  | A4 z2^de fe=df e2z2  | 
w:  hem  *  de  *  *  *  dur *  *  *  *  *  *  mu  |  yor  a  *  câ *  *  *  nım    | 
^d2e2 dfe2 c/B/c/d/cB A4  | ^d2e2 f^gfe edcd e2z2  | 
w:  Üs *  *  *  *  tü *  *  *  *  *  ne   |  toz   | 
ef^ga bc'ba baga fge2  | d2e4dc cdcB A2z2  | 
w:  kon *  *  *  *  *  *  *  dur *  *  *  *  *  mu  |  yor    | 
baa^g gffe egfe d2=g2  | gf2e d2a2 gfed cBA2  | 
w:  Bu *  *  *  *  *  *  *  na  *  *  *  *  sab  |   | 
z2Bc dfed cBA^G FEFG  | A4 z2de dcBd c2z2  | 
w:  rım  *  pek  *  *  *  ya *  *  *  *  *  *  nı  |  yor  a  *  câ *  *  *  nım    | 
baa^g gffe egfe d2=g2  | gf2e d2a2 gfed cBA2  | 
w:  Bu *  *  *  *  *  *  *  na  *  *  *  *  sab  |   | 
z2Bc dfed cBA^G FEFG  | A6|
w:  rım  *  pek  *  *  *  ya *  *  *  *  *  *  nı  |  yor   | 


